X: 90
P: No. XC.
M: 6/8
L: 1/8
K: G
V: 1
dBG dBG | {F}E3 e3 | dcB ABG | G3 F2B/c/ |\
dBG dBG | {F}E3 e3 | dcB AGF | E3 G2 :|
|: B/c/ |\
ded gab | ded dBc | ded gab | ded dBc |\
dBG dBG | {F}E3 e3 | dcB AGF | E3 G2 :|
V: 2 clef=bass middle=d
z |\
g3 G3 | ceg ceg | B3 c3 | dcd D2z |\
g3 G3 | ceg ceg | B3 d3 | c3  G2 :|
|: z |\

